src/pages/elements/images/hyphen-en-dash-right-mobile.svg

<svg xmlns="http://www.w3.org/2000/svg" viewBox="0 0 288 216"><g fill="none" fill-rule="evenodd"><path fill="#FFF" d="M0 0h288v216H0z"/><path d="M79.96 72h-1.92V59.616h1.92v2.016h.096c.6-1.392 1.656-2.304 3.504-2.304 2.544 0 4.152 1.728 4.152 4.728V72h-1.92v-7.608c0-2.208-.96-3.336-2.808-3.336-1.536 0-3.024.768-3.024 2.352V72zm16.392.288c-3.312 0-5.592-2.544-5.592-6.48 0-3.936 2.28-6.48 5.592-6.48s5.592 2.544 5.592 6.48c0 3.936-2.28 6.48-5.592 6.48zm0-1.704c2.064 0 3.528-1.272 3.528-3.888V64.92c0-2.616-1.464-3.888-3.528-3.888s-3.528 1.272-3.528 3.888v1.776c0 2.616 1.464 3.888 3.528 3.888zM107.032 72h-1.92V59.616h1.92v2.016h.096c.6-1.392 1.656-2.304 3.504-2.304 2.544 0 4.152 1.728 4.152 4.728V72h-1.92v-7.608c0-2.208-.96-3.336-2.808-3.336-1.536 0-3.024.768-3.024 2.352V72zm17.592-6.264h-6.264v-2.064h6.264v2.064zM128.32 76.8V59.616h1.92v2.016h.096c.648-1.56 1.92-2.304 3.624-2.304 3.096 0 5.04 2.52 5.04 6.48 0 3.96-1.944 6.48-5.04 6.48-1.704 0-2.88-.768-3.624-2.304h-.096V76.8h-1.92zm5.112-6.24c2.16 0 3.504-1.488 3.504-3.696v-2.112c0-2.208-1.344-3.696-3.504-3.696-1.752 0-3.192 1.008-3.192 2.376v4.608c0 1.608 1.44 2.52 3.192 2.52zM144.16 72h-1.92V59.616h1.92v2.28h.12c.432-1.176 1.56-2.28 3.576-2.28h.744v1.92h-1.128c-2.064 0-3.312.888-3.312 2.064V72zm11.448.288c-3.312 0-5.592-2.544-5.592-6.48 0-3.936 2.28-6.48 5.592-6.48s5.592 2.544 5.592 6.48c0 3.936-2.28 6.48-5.592 6.48zm0-1.704c2.064 0 3.528-1.272 3.528-3.888V64.92c0-2.616-1.464-3.888-3.528-3.888s-3.528 1.272-3.528 3.888v1.776c0 2.616 1.464 3.888 3.528 3.888zM164.896 72V61.296h-2.016v-1.68h2.016V57.12c0-1.704.888-2.88 2.712-2.88h1.872v1.68h-2.664v3.696h6.936V72h-1.92V61.296h-5.016V72h-1.92zm7.896-15.288c-.816 0-1.176-.432-1.176-1.08v-.312c0-.648.36-1.08 1.176-1.08s1.176.432 1.176 1.08v.312c0 .648-.36 1.08-1.176 1.08zM182.968 72h-2.4c-1.32 0-2.04-.84-2.04-2.04v-8.664h-2.04v-1.68h1.152c.816 0 1.08-.288 1.08-1.128v-2.304h1.728v3.432h2.712v1.68h-2.712v9.024h2.52V72zM88.792 91.392c0 4.968-3.288 8.856-5.976 10.608h-2.592c3.576-2.616 5.568-4.8 6.48-8.688l-.12-.048c-.792 1.368-1.992 2.4-4.032 2.4-2.88 0-4.944-1.992-4.944-5.16 0-3.288 2.208-5.544 5.568-5.544 3.48 0 5.616 2.448 5.616 6.432zM83.2 93.96c2.208 0 3.504-1.272 3.504-3.528v-.192c0-2.256-1.296-3.528-3.504-3.528s-3.504 1.272-3.504 3.528v.192c0 2.256 1.296 3.528 3.504 3.528zm10.704-1.536c-1.008 0-1.464-.576-1.464-1.392v-.312c0-.816.456-1.392 1.464-1.392s1.464.576 1.464 1.392v.312c0 .816-.456 1.392-1.464 1.392zm0 9.864c-1.008 0-1.464-.576-1.464-1.392v-.312c0-.816.456-1.392 1.464-1.392s1.464.576 1.464 1.392v.312c0 .816-.456 1.392-1.464 1.392zm10.704 0c-4.008 0-5.76-3.192-5.76-8.664 0-5.472 1.752-8.664 5.76-8.664s5.76 3.192 5.76 8.664c0 5.472-1.752 8.664-5.76 8.664zm0-1.752c2.616 0 3.648-2.304 3.648-5.544v-2.736c0-3.24-1.032-5.544-3.648-5.544s-3.648 2.304-3.648 5.544v2.736c0 3.24 1.032 5.544 3.648 5.544zm14.4 1.752c-4.008 0-5.76-3.192-5.76-8.664 0-5.472 1.752-8.664 5.76-8.664s5.76 3.192 5.76 8.664c0 5.472-1.752 8.664-5.76 8.664zm0-1.752c2.616 0 3.648-2.304 3.648-5.544v-2.736c0-3.24-1.032-5.544-3.648-5.544s-3.648 2.304-3.648 5.544v2.736c0 3.24 1.032 5.544 3.648 5.544zm20.448-4.92h-12.384v-1.824h12.384v1.824zm12.816-10.368v1.776h-7.344l-.48 6.384h.168c.792-1.128 1.68-1.848 3.432-1.848 2.88 0 4.992 1.944 4.992 5.184 0 3.264-2.112 5.544-5.64 5.544-2.784 0-4.224-1.416-5.232-2.856l1.512-1.152c.864 1.32 1.704 2.208 3.72 2.208 2.28 0 3.504-1.272 3.504-3.48v-.24c0-2.208-1.224-3.48-3.504-3.48-1.536 0-2.304.648-3 1.416l-1.704-.24.6-9.216h8.976zm5.952 7.176c-1.008 0-1.464-.576-1.464-1.392v-.312c0-.816.456-1.392 1.464-1.392s1.464.576 1.464 1.392v.312c0 .816-.456 1.392-1.464 1.392zm0 9.864c-1.008 0-1.464-.576-1.464-1.392v-.312c0-.816.456-1.392 1.464-1.392s1.464.576 1.464 1.392v.312c0 .816-.456 1.392-1.464 1.392zm10.704 0c-4.008 0-5.76-3.192-5.76-8.664 0-5.472 1.752-8.664 5.76-8.664s5.76 3.192 5.76 8.664c0 5.472-1.752 8.664-5.76 8.664zm0-1.752c2.616 0 3.648-2.304 3.648-5.544v-2.736c0-3.24-1.032-5.544-3.648-5.544s-3.648 2.304-3.648 5.544v2.736c0 3.24 1.032 5.544 3.648 5.544zm14.4 1.752c-4.008 0-5.76-3.192-5.76-8.664 0-5.472 1.752-8.664 5.76-8.664s5.76 3.192 5.76 8.664c0 5.472-1.752 8.664-5.76 8.664zm0-1.752c2.616 0 3.648-2.304 3.648-5.544v-2.736c0-3.24-1.032-5.544-3.648-5.544s-3.648 2.304-3.648 5.544v2.736c0 3.24 1.032 5.544 3.648 5.544zM78.232 132v-16.752h2.688l4.8 9.024h.12l4.824-9.024h2.592V132h-1.968v-14.112h-.12l-1.416 2.808-4.008 7.296-4.008-7.296-1.416-2.808h-.12V132h-1.968zm29.376 0h-1.08c-1.416 0-1.992-.864-2.136-2.016h-.12c-.528 1.512-1.848 2.304-3.576 2.304-2.616 0-4.152-1.44-4.152-3.744 0-2.328 1.68-3.624 5.28-3.624h2.448v-1.224c0-1.752-.96-2.712-2.928-2.712-1.488 0-2.472.72-3.144 1.848l-1.152-1.08c.672-1.32 2.16-2.424 4.392-2.424 2.976 0 4.752 1.56 4.752 4.176v6.816h1.416V132zm-6.6-1.344c1.896 0 3.264-.984 3.264-2.256v-2.04h-2.544c-2.184 0-3.168.672-3.168 1.872v.504c0 1.224.96 1.92 2.448 1.92zm13.848-2.616l3-8.424h1.896l-5.544 15.264c-.552 1.488-1.056 1.92-2.88 1.92h-.984v-1.68h1.944l.936-2.64-4.632-12.864h1.92l2.976 8.424.576 2.016h.12l.672-2.016zm23.76 2.184V132h-10.992v-2.064l5.472-5.04c1.56-1.44 2.76-3.12 2.76-4.728v-.288c0-1.848-1.032-3.12-3.096-3.12s-3.024 1.248-3.48 2.832l-1.8-.696c.648-1.968 2.136-3.936 5.376-3.936 3.264 0 5.136 2.016 5.136 4.872 0 2.592-1.536 4.416-3.672 6.336l-4.512 4.056h8.808zm6.048-7.872h1.824c2.256 0 3.408-1.176 3.408-2.784v-.168c0-1.752-1.224-2.64-3-2.64-1.728 0-2.76.816-3.456 2.088l-1.488-1.152c.84-1.344 2.304-2.736 4.992-2.736 2.832 0 5.088 1.512 5.088 4.224 0 2.16-1.44 3.456-3.216 3.912v.096c1.8.36 3.528 1.704 3.528 4.224 0 2.88-2.28 4.872-5.688 4.872-2.904 0-4.392-1.416-5.424-2.856l1.512-1.152c.864 1.32 1.848 2.208 3.888 2.208 2.352 0 3.6-1.128 3.6-3.096v-.192c0-1.968-1.248-3.096-3.6-3.096h-1.968v-1.752zm23.208 3.264h-12.384v-1.824h12.384v1.824zm13.656 4.608V132h-10.992v-2.064l5.472-5.04c1.56-1.44 2.76-3.12 2.76-4.728v-.288c0-1.848-1.032-3.12-3.096-3.12s-3.024 1.248-3.48 2.832l-1.8-.696c.648-1.968 2.136-3.936 5.376-3.936 3.264 0 5.136 2.016 5.136 4.872 0 2.592-1.536 4.416-3.672 6.336l-4.512 4.056h8.808zm8.808 2.064c-3.816 0-5.808-2.088-5.808-4.848 0-2.28 1.368-3.6 3.384-4.152v-.192c-1.752-.6-2.88-2.016-2.88-3.936 0-2.544 1.968-4.2 5.304-4.2 3.336 0 5.304 1.656 5.304 4.2 0 1.92-1.128 3.336-2.88 3.936v.192c2.016.552 3.384 1.872 3.384 4.152 0 2.76-1.992 4.848-5.808 4.848zm0-1.752c2.328 0 3.672-1.104 3.672-3v-.504c0-1.896-1.344-3-3.672-3-2.328 0-3.672 1.104-3.672 3v.504c0 1.896 1.344 3 3.672 3zm0-8.184c2.088 0 3.216-.936 3.216-2.64v-.36c0-1.704-1.128-2.64-3.216-2.64s-3.216.936-3.216 2.64v.36c0 1.704 1.128 2.64 3.216 2.64zM89.128 162H78.112v-1.776h4.68v-13.488h-.168l-4.224 3.936-1.176-1.272 4.44-4.152h3.144v14.976h4.32V162zm14.064-10.608c0 4.968-3.288 8.856-5.976 10.608h-2.592c3.576-2.616 5.568-4.8 6.48-8.688l-.12-.048c-.792 1.368-1.992 2.4-4.032 2.4-2.88 0-4.944-1.992-4.944-5.16 0-3.288 2.208-5.544 5.568-5.544 3.48 0 5.616 2.448 5.616 6.432zM97.6 153.96c2.208 0 3.504-1.272 3.504-3.528v-.192c0-2.256-1.296-3.528-3.504-3.528s-3.504 1.272-3.504 3.528v.192c0 2.256 1.296 3.528 3.504 3.528zm14.4 8.328c-3.816 0-5.808-2.088-5.808-4.848 0-2.28 1.368-3.6 3.384-4.152v-.192c-1.752-.6-2.88-2.016-2.88-3.936 0-2.544 1.968-4.2 5.304-4.2 3.336 0 5.304 1.656 5.304 4.2 0 1.92-1.128 3.336-2.88 3.936v.192c2.016.552 3.384 1.872 3.384 4.152 0 2.76-1.992 4.848-5.808 4.848zm0-1.752c2.328 0 3.672-1.104 3.672-3v-.504c0-1.896-1.344-3-3.672-3-2.328 0-3.672 1.104-3.672 3v.504c0 1.896 1.344 3 3.672 3zm0-8.184c2.088 0 3.216-.936 3.216-2.64v-.36c0-1.704-1.128-2.64-3.216-2.64s-3.216.936-3.216 2.64v.36c0 1.704 1.128 2.64 3.216 2.64zm14.4 9.936c-4.008 0-5.76-3.192-5.76-8.664 0-5.472 1.752-8.664 5.76-8.664s5.76 3.192 5.76 8.664c0 5.472-1.752 8.664-5.76 8.664zm0-1.752c2.616 0 3.648-2.304 3.648-5.544v-2.736c0-3.24-1.032-5.544-3.648-5.544s-3.648 2.304-3.648 5.544v2.736c0 3.24 1.032 5.544 3.648 5.544zm20.448-4.92h-12.384v-1.824h12.384v1.824zm13.656 4.608V162h-10.992v-2.064l5.472-5.04c1.56-1.44 2.76-3.12 2.76-4.728v-.288c0-1.848-1.032-3.12-3.096-3.12s-3.024 1.248-3.48 2.832l-1.8-.696c.648-1.968 2.136-3.936 5.376-3.936 3.264 0 5.136 2.016 5.136 4.872 0 2.592-1.536 4.416-3.672 6.336l-4.512 4.056h8.808zm8.808 2.064c-4.008 0-5.76-3.192-5.76-8.664 0-5.472 1.752-8.664 5.76-8.664s5.76 3.192 5.76 8.664c0 5.472-1.752 8.664-5.76 8.664zm0-1.752c2.616 0 3.648-2.304 3.648-5.544v-2.736c0-3.24-1.032-5.544-3.648-5.544s-3.648 2.304-3.648 5.544v2.736c0 3.24 1.032 5.544 3.648 5.544zM189.64 162h-11.016v-1.776h4.68v-13.488h-.168l-4.224 3.936-1.176-1.272 4.44-4.152h3.144v14.976h4.32V162zm8.496.288c-3.48 0-5.616-2.448-5.616-6.432 0-4.968 3.288-8.856 5.976-10.608h2.592c-3.576 2.616-5.568 4.8-6.48 8.688l.12.048c.792-1.368 1.992-2.4 4.032-2.4 2.88 0 4.944 1.992 4.944 5.16 0 3.288-2.208 5.544-5.568 5.544zm-.024-1.752c2.208 0 3.504-1.272 3.504-3.528v-.192c0-2.256-1.296-3.528-3.504-3.528s-3.504 1.272-3.504 3.528v.192c0 2.256 1.296 3.528 3.504 3.528z" fill="#3D3D3D"/></g></svg>

<?xml version="1.0" encoding="UTF-8"?>
<svg width="288px" height="216px" viewBox="0 0 288 216" version="1.1" xmlns="http://www.w3.org/2000/svg" xmlns:xlink="http://www.w3.org/1999/xlink">
    <!-- Generator: Sketch 51.2 (57519) - http://www.bohemiancoding.com/sketch -->
    <title>Hyphen &amp; En Dash - right_Mobile</title>
    <desc>Created with Sketch.</desc>
    <defs></defs>
    <g id="Page-1" stroke="none" stroke-width="1" fill="none" fill-rule="evenodd">
        <g id="Typography_Mobile_320px-Copy-2" transform="translate(-16.000000, -1748.000000)">
            <g id="Group-6" transform="translate(16.000000, 1748.000000)">
                <g id="Hyphen-&amp;-En-Dash---right_Mobile">
                    <rect id="Rectangle-16-Copy-175" fill="#FFFFFF" x="0" y="0" width="288" height="216"></rect>
                    <path d="M79.96,72 L78.04,72 L78.04,59.616 L79.96,59.616 L79.96,61.632 L80.056,61.632 C80.656,60.24 81.712,59.328 83.56,59.328 C86.104,59.328 87.712,61.056 87.712,64.056 L87.712,72 L85.792,72 L85.792,64.392 C85.792,62.184 84.832,61.056 82.984,61.056 C81.448,61.056 79.96,61.824 79.96,63.408 L79.96,72 Z M96.352,72.288 C93.04,72.288 90.76,69.744 90.76,65.808 C90.76,61.872 93.04,59.328 96.352,59.328 C99.664,59.328 101.944,61.872 101.944,65.808 C101.944,69.744 99.664,72.288 96.352,72.288 Z M96.352,70.584 C98.416,70.584 99.88,69.312 99.88,66.696 L99.88,64.92 C99.88,62.304 98.416,61.032 96.352,61.032 C94.288,61.032 92.824,62.304 92.824,64.92 L92.824,66.696 C92.824,69.312 94.288,70.584 96.352,70.584 Z M107.032,72 L105.112,72 L105.112,59.616 L107.032,59.616 L107.032,61.632 L107.128,61.632 C107.728,60.24 108.784,59.328 110.632,59.328 C113.176,59.328 114.784,61.056 114.784,64.056 L114.784,72 L112.864,72 L112.864,64.392 C112.864,62.184 111.904,61.056 110.056,61.056 C108.52,61.056 107.032,61.824 107.032,63.408 L107.032,72 Z M124.624,65.736 L118.36,65.736 L118.36,63.672 L124.624,63.672 L124.624,65.736 Z M128.32,76.8 L128.32,59.616 L130.24,59.616 L130.24,61.632 L130.336,61.632 C130.984,60.072 132.256,59.328 133.96,59.328 C137.056,59.328 139,61.848 139,65.808 C139,69.768 137.056,72.288 133.96,72.288 C132.256,72.288 131.08,71.52 130.336,69.984 L130.24,69.984 L130.24,76.8 L128.32,76.8 Z M133.432,70.56 C135.592,70.56 136.936,69.072 136.936,66.864 L136.936,64.752 C136.936,62.544 135.592,61.056 133.432,61.056 C131.68,61.056 130.24,62.064 130.24,63.432 L130.24,68.04 C130.24,69.648 131.68,70.56 133.432,70.56 Z M144.16,72 L142.24,72 L142.24,59.616 L144.16,59.616 L144.16,61.896 L144.28,61.896 C144.712,60.72 145.84,59.616 147.856,59.616 L148.6,59.616 L148.6,61.536 L147.472,61.536 C145.408,61.536 144.16,62.424 144.16,63.6 L144.16,72 Z M155.608,72.288 C152.296,72.288 150.016,69.744 150.016,65.808 C150.016,61.872 152.296,59.328 155.608,59.328 C158.92,59.328 161.2,61.872 161.2,65.808 C161.2,69.744 158.92,72.288 155.608,72.288 Z M155.608,70.584 C157.672,70.584 159.136,69.312 159.136,66.696 L159.136,64.92 C159.136,62.304 157.672,61.032 155.608,61.032 C153.544,61.032 152.08,62.304 152.08,64.92 L152.08,66.696 C152.08,69.312 153.544,70.584 155.608,70.584 Z M164.896,72 L164.896,61.296 L162.88,61.296 L162.88,59.616 L164.896,59.616 L164.896,57.12 C164.896,55.416 165.784,54.24 167.608,54.24 L169.48,54.24 L169.48,55.92 L166.816,55.92 L166.816,59.616 L173.752,59.616 L173.752,72 L171.832,72 L171.832,61.296 L166.816,61.296 L166.816,72 L164.896,72 Z M172.792,56.712 C171.976,56.712 171.616,56.28 171.616,55.632 L171.616,55.32 C171.616,54.672 171.976,54.24 172.792,54.24 C173.608,54.24 173.968,54.672 173.968,55.32 L173.968,55.632 C173.968,56.28 173.608,56.712 172.792,56.712 Z M182.968,72 L180.568,72 C179.248,72 178.528,71.16 178.528,69.96 L178.528,61.296 L176.488,61.296 L176.488,59.616 L177.64,59.616 C178.456,59.616 178.72,59.328 178.72,58.488 L178.72,56.184 L180.448,56.184 L180.448,59.616 L183.16,59.616 L183.16,61.296 L180.448,61.296 L180.448,70.32 L182.968,70.32 L182.968,72 Z M88.792,91.392 C88.792,96.36 85.504,100.248 82.816,102 L80.224,102 C83.8,99.384 85.792,97.2 86.704,93.312 L86.584,93.264 C85.792,94.632 84.592,95.664 82.552,95.664 C79.672,95.664 77.608,93.672 77.608,90.504 C77.608,87.216 79.816,84.96 83.176,84.96 C86.656,84.96 88.792,87.408 88.792,91.392 Z M83.2,93.96 C85.408,93.96 86.704,92.688 86.704,90.432 L86.704,90.24 C86.704,87.984 85.408,86.712 83.2,86.712 C80.992,86.712 79.696,87.984 79.696,90.24 L79.696,90.432 C79.696,92.688 80.992,93.96 83.2,93.96 Z M93.904,92.424 C92.896,92.424 92.44,91.848 92.44,91.032 L92.44,90.72 C92.44,89.904 92.896,89.328 93.904,89.328 C94.912,89.328 95.368,89.904 95.368,90.72 L95.368,91.032 C95.368,91.848 94.912,92.424 93.904,92.424 Z M93.904,102.288 C92.896,102.288 92.44,101.712 92.44,100.896 L92.44,100.584 C92.44,99.768 92.896,99.192 93.904,99.192 C94.912,99.192 95.368,99.768 95.368,100.584 L95.368,100.896 C95.368,101.712 94.912,102.288 93.904,102.288 Z M104.608,102.288 C100.6,102.288 98.848,99.096 98.848,93.624 C98.848,88.152 100.6,84.96 104.608,84.96 C108.616,84.96 110.368,88.152 110.368,93.624 C110.368,99.096 108.616,102.288 104.608,102.288 Z M104.608,100.536 C107.224,100.536 108.256,98.232 108.256,94.992 L108.256,92.256 C108.256,89.016 107.224,86.712 104.608,86.712 C101.992,86.712 100.96,89.016 100.96,92.256 L100.96,94.992 C100.96,98.232 101.992,100.536 104.608,100.536 Z M119.008,102.288 C115,102.288 113.248,99.096 113.248,93.624 C113.248,88.152 115,84.96 119.008,84.96 C123.016,84.96 124.768,88.152 124.768,93.624 C124.768,99.096 123.016,102.288 119.008,102.288 Z M119.008,100.536 C121.624,100.536 122.656,98.232 122.656,94.992 L122.656,92.256 C122.656,89.016 121.624,86.712 119.008,86.712 C116.392,86.712 115.36,89.016 115.36,92.256 L115.36,94.992 C115.36,98.232 116.392,100.536 119.008,100.536 Z M139.456,95.616 L127.072,95.616 L127.072,93.792 L139.456,93.792 L139.456,95.616 Z M152.272,85.248 L152.272,87.024 L144.928,87.024 L144.448,93.408 L144.616,93.408 C145.408,92.28 146.296,91.56 148.048,91.56 C150.928,91.56 153.04,93.504 153.04,96.744 C153.04,100.008 150.928,102.288 147.4,102.288 C144.616,102.288 143.176,100.872 142.168,99.432 L143.68,98.28 C144.544,99.6 145.384,100.488 147.4,100.488 C149.68,100.488 150.904,99.216 150.904,97.008 L150.904,96.768 C150.904,94.56 149.68,93.288 147.4,93.288 C145.864,93.288 145.096,93.936 144.4,94.704 L142.696,94.464 L143.296,85.248 L152.272,85.248 Z M158.224,92.424 C157.216,92.424 156.76,91.848 156.76,91.032 L156.76,90.72 C156.76,89.904 157.216,89.328 158.224,89.328 C159.232,89.328 159.688,89.904 159.688,90.72 L159.688,91.032 C159.688,91.848 159.232,92.424 158.224,92.424 Z M158.224,102.288 C157.216,102.288 156.76,101.712 156.76,100.896 L156.76,100.584 C156.76,99.768 157.216,99.192 158.224,99.192 C159.232,99.192 159.688,99.768 159.688,100.584 L159.688,100.896 C159.688,101.712 159.232,102.288 158.224,102.288 Z M168.928,102.288 C164.92,102.288 163.168,99.096 163.168,93.624 C163.168,88.152 164.92,84.96 168.928,84.96 C172.936,84.96 174.688,88.152 174.688,93.624 C174.688,99.096 172.936,102.288 168.928,102.288 Z M168.928,100.536 C171.544,100.536 172.576,98.232 172.576,94.992 L172.576,92.256 C172.576,89.016 171.544,86.712 168.928,86.712 C166.312,86.712 165.28,89.016 165.28,92.256 L165.28,94.992 C165.28,98.232 166.312,100.536 168.928,100.536 Z M183.328,102.288 C179.32,102.288 177.568,99.096 177.568,93.624 C177.568,88.152 179.32,84.96 183.328,84.96 C187.336,84.96 189.088,88.152 189.088,93.624 C189.088,99.096 187.336,102.288 183.328,102.288 Z M183.328,100.536 C185.944,100.536 186.976,98.232 186.976,94.992 L186.976,92.256 C186.976,89.016 185.944,86.712 183.328,86.712 C180.712,86.712 179.68,89.016 179.68,92.256 L179.68,94.992 C179.68,98.232 180.712,100.536 183.328,100.536 Z M78.232,132 L78.232,115.248 L80.92,115.248 L85.72,124.272 L85.84,124.272 L90.664,115.248 L93.256,115.248 L93.256,132 L91.288,132 L91.288,117.888 L91.168,117.888 L89.752,120.696 L85.744,127.992 L81.736,120.696 L80.32,117.888 L80.2,117.888 L80.2,132 L78.232,132 Z M107.608,132 L106.528,132 C105.112,132 104.536,131.136 104.392,129.984 L104.272,129.984 C103.744,131.496 102.424,132.288 100.696,132.288 C98.08,132.288 96.544,130.848 96.544,128.544 C96.544,126.216 98.224,124.92 101.824,124.92 L104.272,124.92 L104.272,123.696 C104.272,121.944 103.312,120.984 101.344,120.984 C99.856,120.984 98.872,121.704 98.2,122.832 L97.048,121.752 C97.72,120.432 99.208,119.328 101.44,119.328 C104.416,119.328 106.192,120.888 106.192,123.504 L106.192,130.32 L107.608,130.32 L107.608,132 Z M101.008,130.656 C102.904,130.656 104.272,129.672 104.272,128.4 L104.272,126.36 L101.728,126.36 C99.544,126.36 98.56,127.032 98.56,128.232 L98.56,128.736 C98.56,129.96 99.52,130.656 101.008,130.656 Z M114.856,128.04 L117.856,119.616 L119.752,119.616 L114.208,134.88 C113.656,136.368 113.152,136.8 111.328,136.8 L110.344,136.8 L110.344,135.12 L112.288,135.12 L113.224,132.48 L108.592,119.616 L110.512,119.616 L113.488,128.04 L114.064,130.056 L114.184,130.056 L114.856,128.04 Z M138.616,130.224 L138.616,132 L127.624,132 L127.624,129.936 L133.096,124.896 C134.656,123.456 135.856,121.776 135.856,120.168 L135.856,119.88 C135.856,118.032 134.824,116.76 132.76,116.76 C130.696,116.76 129.736,118.008 129.28,119.592 L127.48,118.896 C128.128,116.928 129.616,114.96 132.856,114.96 C136.12,114.96 137.992,116.976 137.992,119.832 C137.992,122.424 136.456,124.248 134.32,126.168 L129.808,130.224 L138.616,130.224 Z M144.664,122.352 L146.488,122.352 C148.744,122.352 149.896,121.176 149.896,119.568 L149.896,119.4 C149.896,117.648 148.672,116.76 146.896,116.76 C145.168,116.76 144.136,117.576 143.44,118.848 L141.952,117.696 C142.792,116.352 144.256,114.96 146.944,114.96 C149.776,114.96 152.032,116.472 152.032,119.184 C152.032,121.344 150.592,122.64 148.816,123.096 L148.816,123.192 C150.616,123.552 152.344,124.896 152.344,127.416 C152.344,130.296 150.064,132.288 146.656,132.288 C143.752,132.288 142.264,130.872 141.232,129.432 L142.744,128.28 C143.608,129.6 144.592,130.488 146.632,130.488 C148.984,130.488 150.232,129.36 150.232,127.392 L150.232,127.2 C150.232,125.232 148.984,124.104 146.632,124.104 L144.664,124.104 L144.664,122.352 Z M167.872,125.616 L155.488,125.616 L155.488,123.792 L167.872,123.792 L167.872,125.616 Z M181.528,130.224 L181.528,132 L170.536,132 L170.536,129.936 L176.008,124.896 C177.568,123.456 178.768,121.776 178.768,120.168 L178.768,119.88 C178.768,118.032 177.736,116.76 175.672,116.76 C173.608,116.76 172.648,118.008 172.192,119.592 L170.392,118.896 C171.04,116.928 172.528,114.96 175.768,114.96 C179.032,114.96 180.904,116.976 180.904,119.832 C180.904,122.424 179.368,124.248 177.232,126.168 L172.72,130.224 L181.528,130.224 Z M190.336,132.288 C186.52,132.288 184.528,130.2 184.528,127.44 C184.528,125.16 185.896,123.84 187.912,123.288 L187.912,123.096 C186.16,122.496 185.032,121.08 185.032,119.16 C185.032,116.616 187,114.96 190.336,114.96 C193.672,114.96 195.64,116.616 195.64,119.16 C195.64,121.08 194.512,122.496 192.76,123.096 L192.76,123.288 C194.776,123.84 196.144,125.16 196.144,127.44 C196.144,130.2 194.152,132.288 190.336,132.288 Z M190.336,130.536 C192.664,130.536 194.008,129.432 194.008,127.536 L194.008,127.032 C194.008,125.136 192.664,124.032 190.336,124.032 C188.008,124.032 186.664,125.136 186.664,127.032 L186.664,127.536 C186.664,129.432 188.008,130.536 190.336,130.536 Z M190.336,122.352 C192.424,122.352 193.552,121.416 193.552,119.712 L193.552,119.352 C193.552,117.648 192.424,116.712 190.336,116.712 C188.248,116.712 187.12,117.648 187.12,119.352 L187.12,119.712 C187.12,121.416 188.248,122.352 190.336,122.352 Z M89.128,162 L78.112,162 L78.112,160.224 L82.792,160.224 L82.792,146.736 L82.624,146.736 L78.4,150.672 L77.224,149.4 L81.664,145.248 L84.808,145.248 L84.808,160.224 L89.128,160.224 L89.128,162 Z M103.192,151.392 C103.192,156.36 99.904,160.248 97.216,162 L94.624,162 C98.2,159.384 100.192,157.2 101.104,153.312 L100.984,153.264 C100.192,154.632 98.992,155.664 96.952,155.664 C94.072,155.664 92.008,153.672 92.008,150.504 C92.008,147.216 94.216,144.96 97.576,144.96 C101.056,144.96 103.192,147.408 103.192,151.392 Z M97.6,153.96 C99.808,153.96 101.104,152.688 101.104,150.432 L101.104,150.24 C101.104,147.984 99.808,146.712 97.6,146.712 C95.392,146.712 94.096,147.984 94.096,150.24 L94.096,150.432 C94.096,152.688 95.392,153.96 97.6,153.96 Z M112,162.288 C108.184,162.288 106.192,160.2 106.192,157.44 C106.192,155.16 107.56,153.84 109.576,153.288 L109.576,153.096 C107.824,152.496 106.696,151.08 106.696,149.16 C106.696,146.616 108.664,144.96 112,144.96 C115.336,144.96 117.304,146.616 117.304,149.16 C117.304,151.08 116.176,152.496 114.424,153.096 L114.424,153.288 C116.44,153.84 117.808,155.16 117.808,157.44 C117.808,160.2 115.816,162.288 112,162.288 Z M112,160.536 C114.328,160.536 115.672,159.432 115.672,157.536 L115.672,157.032 C115.672,155.136 114.328,154.032 112,154.032 C109.672,154.032 108.328,155.136 108.328,157.032 L108.328,157.536 C108.328,159.432 109.672,160.536 112,160.536 Z M112,152.352 C114.088,152.352 115.216,151.416 115.216,149.712 L115.216,149.352 C115.216,147.648 114.088,146.712 112,146.712 C109.912,146.712 108.784,147.648 108.784,149.352 L108.784,149.712 C108.784,151.416 109.912,152.352 112,152.352 Z M126.4,162.288 C122.392,162.288 120.64,159.096 120.64,153.624 C120.64,148.152 122.392,144.96 126.4,144.96 C130.408,144.96 132.16,148.152 132.16,153.624 C132.16,159.096 130.408,162.288 126.4,162.288 Z M126.4,160.536 C129.016,160.536 130.048,158.232 130.048,154.992 L130.048,152.256 C130.048,149.016 129.016,146.712 126.4,146.712 C123.784,146.712 122.752,149.016 122.752,152.256 L122.752,154.992 C122.752,158.232 123.784,160.536 126.4,160.536 Z M146.848,155.616 L134.464,155.616 L134.464,153.792 L146.848,153.792 L146.848,155.616 Z M160.504,160.224 L160.504,162 L149.512,162 L149.512,159.936 L154.984,154.896 C156.544,153.456 157.744,151.776 157.744,150.168 L157.744,149.88 C157.744,148.032 156.712,146.76 154.648,146.76 C152.584,146.76 151.624,148.008 151.168,149.592 L149.368,148.896 C150.016,146.928 151.504,144.96 154.744,144.96 C158.008,144.96 159.88,146.976 159.88,149.832 C159.88,152.424 158.344,154.248 156.208,156.168 L151.696,160.224 L160.504,160.224 Z M169.312,162.288 C165.304,162.288 163.552,159.096 163.552,153.624 C163.552,148.152 165.304,144.96 169.312,144.96 C173.32,144.96 175.072,148.152 175.072,153.624 C175.072,159.096 173.32,162.288 169.312,162.288 Z M169.312,160.536 C171.928,160.536 172.96,158.232 172.96,154.992 L172.96,152.256 C172.96,149.016 171.928,146.712 169.312,146.712 C166.696,146.712 165.664,149.016 165.664,152.256 L165.664,154.992 C165.664,158.232 166.696,160.536 169.312,160.536 Z M189.64,162 L178.624,162 L178.624,160.224 L183.304,160.224 L183.304,146.736 L183.136,146.736 L178.912,150.672 L177.736,149.4 L182.176,145.248 L185.32,145.248 L185.32,160.224 L189.64,160.224 L189.64,162 Z M198.136,162.288 C194.656,162.288 192.52,159.84 192.52,155.856 C192.52,150.888 195.808,147 198.496,145.248 L201.088,145.248 C197.512,147.864 195.52,150.048 194.608,153.936 L194.728,153.984 C195.52,152.616 196.72,151.584 198.76,151.584 C201.64,151.584 203.704,153.576 203.704,156.744 C203.704,160.032 201.496,162.288 198.136,162.288 Z M198.112,160.536 C200.32,160.536 201.616,159.264 201.616,157.008 L201.616,156.816 C201.616,154.56 200.32,153.288 198.112,153.288 C195.904,153.288 194.608,154.56 194.608,156.816 L194.608,157.008 C194.608,159.264 195.904,160.536 198.112,160.536 Z" id="non-proﬁt-9:00–5:00" fill="#3D3D3D"></path>
                </g>
            </g>
        </g>
    </g>
</svg>
